X:1
T:Etude No.10 Op.60
T:Matteo Carcassi (1792 -1853)
%%score { ( 1 2 ) ( 3 4 ) }
L:1/8
Q:1/8=138
M:3/8
K:D
V:1 treble-8 nm="Classical Guitar"
V:2 treble-8 
V:3 tab stafflines=6 strings=E2,A2,D3,G3,B3,E4 nostems nm="Guitare classique [Tablature]"
V:4 tab stafflines=6 strings=E2,A2,D3,G3,B3,E4 nostems 
V:1
"^All.tto""^V""_" [fa] (3([fa]/!4!b/a/) (3([fa]/b/a/) | [fa]!2!!3![df][df] | %2
"^VII" [gb] (3([gb]/c'/b/) (3([gb]/c'/b/) | [gb]!3!!2![eg][eg] | %4
"^III" [eg] (3([eg]/a/g/) (3([eg]/a/g/) | [eg]!4!!3![ce][ce] | %6
"^V" [fa] (3([fa]/b/a/) (3([fa]/b/a/) | [fa][df][df] | %8
"^III" [d^g]"_cresc." (3([dg]/a/g/) (3([dg]/a/g/) | [d^g][db][db] | %10
"^V""_" [ca] (3([ca]/b/a/) (3([ca]/b/a/) | [ca][ec'][ec'] | %12
"^VII" [db] (3([db]/c'/b/) (3([db]/c'/b/) | [db]d'!2![d^g] |"^V" [ca] (3([ca]/b/a/) (3([ca]/b/a/) | %15
 [ca]2 x ::"^III""_" [eg] (3([eg]/a/g/) (3([eg]/a/g/) | [eg][ce][ce] | %18
"^V" [fa] (3([fa]/b/a/) (3([fa]/b/a/) | [fa][df][df] |"^VII" [gb] (3([gb]/c'/b/) (3([gb]/c'/b/) | %21
 [gb][eg][eg] |"^III" [eg] (3([eg]/a/g/) (3([eg]/a/g/) | [eg][ce][ce] | %24
 [df] (3([df]/g/f/) (3([df]/g/f/) | [df][fa][fa] | [eg] (3([eg]/a/g/) (3([eg]/a/g/) | %27
 [eg][gb][gb] | [ce] (3([ce]/f/e/) (3([ce]/f/e/) | [ce][eg][eg] | %30
 [df] (3([df]/g/f/) (3([df]/g/f/) | [df][fa][fa] | %32
"^VIII""_" [a=c'] (3([ac']/d'/c'/) (3([ac']/d'/c'/) | [a=c'][fa][fa] | %34
"^X" [bd'] (3([bd']/e'/d'/) (3([bd']/e'/d'/) | [bd']"^VII"[gb][gb] | %36
"^V""_" [fa] (3([fa]/b/a/)[fa] |"^VIII" [gc'] (3([gc']/d'/c'/)[gc'] | %38
"^X" [fd'] (3([fd']/e'/d'/) (3([fd']/e'/d'/) | [fd']2 x :| %40
V:2
 D3 | D3 | D3 | D3 | D3 | D3 | D3 | D3 | E,3 | E,3 | A,3 | A,3 | D3 | D2 E, | A,3 | A,2 z :: A,3 | %17
 A,3 | A,3 | A,3 | A,3 | A,3 | A,3 | A,3 | D3 | D3 | D3 | D3 | D3 | D3 | D3 | D3 | D3 | D3 | G3 | %35
 G3 | A,3 | A,3 | D3 | D2 z :| %40
V:3
 [!2!F!1!A] (3([!2!F!1!A]/ !1!B/ !1!A/) (3([!2!F!1!A]/ !1!B/ !1!A/) | %1
 [!2!F!1!A] [!3!D!2!F] [!3!D!2!F] | %2
 [!2!G!1!B] (3([!2!G!1!B]/ !1!c/ !1!B/) (3([!2!G!1!B]/ !1!c/ !1!B/) | %3
 [!2!G!1!B] [!3!E!2!G] [!3!E!2!G] | %4
 [!2!E!1!G] (3([!2!E!1!G]/ !1!A/ !1!G/) (3([!2!E!1!G]/ !1!A/ !1!G/) | %5
 [!2!E!1!G] [!3!C!2!E] [!3!C!2!E] | %6
 [!2!F!1!A] (3([!2!F!1!A]/ !1!B/ !1!A/) (3([!2!F!1!A]/ !1!B/ !1!A/) | %7
 [!2!F!1!A] [!3!D!2!F] [!3!D!2!F] | %8
 [!2!D!1!^G] (3([!2!D!1!G]/ !1!A/ !1!G/) (3([!2!D!1!G]/ !1!A/ !1!G/) | %9
 [!2!D!1!^G] [!3!D!1!B] [!3!D!1!B] | %10
 [!3!C!1!A] (3([!3!C!1!A]/ !1!B/ !1!A/) (3([!3!C!1!A]/ !1!B/ !1!A/) | %11
 [!3!C!1!A] [!3!E!1!c] [!3!E!1!c] | %12
 [!3!D!1!B] (3([!3!D!1!B]/ !1!c/ !1!B/) (3([!3!D!1!B]/ !1!c/ !1!B/) | [!3!D!1!B] !1!d [!2!D!1!^G] | %14
 [!3!C!1!A] (3([!3!C!1!A]/ !1!B/ !1!A/) (3([!3!C!1!A]/ !1!B/ !1!A/) | [!3!C!1!A]2 x :: %16
 [!2!E!1!G] (3([!2!E!1!G]/ !1!A/ !1!G/) (3([!2!E!1!G]/ !1!A/ !1!G/) | %17
 [!2!E!1!G] [!3!C!2!E] [!3!C!2!E] | %18
 [!2!F!1!A] (3([!2!F!1!A]/ !1!B/ !1!A/) (3([!2!F!1!A]/ !1!B/ !1!A/) | %19
 [!2!F!1!A] [!3!D!2!F] [!3!D!2!F] | %20
 [!2!G!1!B] (3([!2!G!1!B]/ !1!c/ !1!B/) (3([!2!G!1!B]/ !1!c/ !1!B/) | %21
 [!2!G!1!B] [!3!E!2!G] [!3!E!2!G] | %22
 [!2!E!1!G] (3([!2!E!1!G]/ !1!A/ !1!G/) (3([!2!E!1!G]/ !1!A/ !1!G/) | %23
 [!2!E!1!G] [!2!C!1!E] [!2!C!1!E] | %24
 [!2!D!1!F] (3([!2!D!1!F]/ !1!G/ !1!F/) (3([!2!D!1!F]/ !1!G/ !1!F/) | %25
 [!2!D!1!F] [!2!F!1!A] [!2!F!1!A] | %26
 [!2!E!1!G] (3([!2!E!1!G]/ !1!A/ !1!G/) (3([!2!E!1!G]/ !1!A/ !1!G/) | %27
 [!2!E!1!G] [!2!G!1!B] [!2!G!1!B] | %28
 [!2!C!1!E] (3([!2!C!1!E]/ !1!F/ !1!E/) (3([!2!C!1!E]/ !1!F/ !1!E/) | %29
 [!2!C!1!E] [!2!E!1!G] [!2!E!1!G] | %30
 [!2!D!1!F] (3([!2!D!1!F]/ !1!G/ !1!F/) (3([!2!D!1!F]/ !1!G/ !1!F/) | %31
 [!2!D!1!F] [!2!F!1!A] [!2!F!1!A] | %32
 [!2!A!1!=c] (3([!2!A!1!c]/ !1!d/ !1!c/) (3([!2!A!1!c]/ !1!d/ !1!c/) | %33
 [!2!A!1!=c] [!2!F!1!A] [!2!F!1!A] | %34
 [!2!B!1!d] (3([!2!B!1!d]/ !1!e/ !1!d/) (3([!2!B!1!d]/ !1!e/ !1!d/) | %35
 [!2!B!1!d] [!2!G!1!B] [!2!G!1!B] | [!2!F!1!A] (3([!2!F!1!A]/ !1!B/ !1!A/) [!2!F!1!A] | %37
 [!2!G!1!c] (3([!2!G!1!c]/ !1!d/ !1!c/) [!2!G!1!c] | %38
 [!3!F!1!d] (3([!3!F!1!d]/ !1!e/ !1!d/) (3([!3!F!1!d]/ !1!e/ !1!d/) | [!3!F!1!d]2 x :| %40
V:4
 !4!D,3 | !4!D,3 | !4!D,3 | !4!D,3 | !4!D,3 | !4!D,3 | !4!D,3 | !4!D,3 | !6!E,,3 | !6!E,,3 | %10
 !5!A,,3 | !5!A,,3 | !4!D,3 | !4!D,2 !6!E,, | !5!A,,3 | !5!A,,2 x :: !5!A,,3 | !5!A,,3 | !5!A,,3 | %19
 !5!A,,3 | !5!A,,3 | !5!A,,3 | !5!A,,3 | !5!A,,3 | !4!D,3 | !4!D,3 | !4!D,3 | !4!D,3 | !4!D,3 | %29
 !4!D,3 | !4!D,3 | !4!D,3 | !4!D,3 | !4!D,3 | !3!G,3 | !3!G,3 | !5!A,,3 | !5!A,,3 | !4!D,3 | %39
 !4!D,2 x :| %40

